X:139
T:Banish Misfortune (variation)
M:6/8
R:Jig
S:Jerry
K:G
de|fed ^cAG|Add ^cAG|FAD {F}DED|FEF GFG|\
c2c cAG|AGA B/2c/2de|fed ^cAG|Add d2e|\
fed ^cAG|AdF ^cAG|F/2G/2AD {F}DED|FEF GFG|\
c2c cAG|AGA B/2c/2de|fed ^c/2B/2AB|Ad^c d2e||\
f/2g/2fd d2e|fdf afd|ezc cdc|ece gec|\
efg afd|e/2f/2ef gfe|fed ^cAG|Ad^c d2e|\
f/2g/2ad d2e|fdf afd|ezc cdc|ece gec|\
efg afd|e2f gfe|fed ^cAG|Add d2e||\
f2g e2f|d2d c3|AdA GFG|EFF GED|\
c2c dAG|AGA B/2c/2de|fed ^cAG|Ad^c d2e|\
f2g e2f|d2d c3|AdA GFG|EFE GED|\
c3 cAG|AGA B/2c/2de|fed ^cAG|Add d2||
